X:1
T:Ballade
T:Ballade
T:F.Chopin, Op.52
C:F.Chopin, Op.52
%%score { ( 1 2 4 ) | ( 3 5 6 ) }
L:1/8
Q:3/8=34
M:6/8
K:Ab
V:1 treble nm="グランドピアノ" snm="Pno."
V:2 treble 
V:4 treble 
V:3 bass 
V:5 bass 
V:6 bass 
V:1
"^Andante con moto"!p! [Gg]!<(![Gg][Gg][Q:3/8=35] [Gg][Gg][Gg] | %1
 [Gg]!<)![Gg][Q:3/8=34][Gg][Q:3/8=32][Q:3/8=35]!p!!>(! [Gg][Ff][=E=e] | %2
 [=E=e][=D=d][Cc]!>)!!p!!<(! e3[Q:3/8=34][Q:3/8=28][Q:3/8=26]!<)! | %3
[Q:3/8=30]!p!!>(! [=Eg][Q:3/8=35][Gg][Gg] [Gg][Ff][E=e]!>)! |!>(! [=E=e][=D=d][Cc]!>)!!<(! e3!<)! | %5
!p!"_dim." [=E=e][Q:3/8=34][=D=d][Cc] e3-[Q:3/8=32] | %6
 e3[Q:3/8=31][Q:3/8=30][Q:3/8=28][Q:3/8=20] !fermata!z2!p![Q:1/4=16] (!>!c- | %7
[Q:3/8=36]"^a tempo""_mezza voce" c_d=B- Bcf | =eBd- dcf | =eBd) z!<(! (c/d/c/d/ | %10
 e)(e!<)!e!mp!!>(! ed/c/B/c/ | A)!>)!!>(! z z4!>)![Q:3/8=35][Q:3/8=34] |!p! z[Q:3/8=36] (ea gd_f- | %13
 fea gd_f) |!p!!<(! z (e/f/e/f/ _g)(gg!<)! |!mp!!>(! _gf/c/e/d/!>)!!p! B) z z | %16
!p!!<(! z (d/e/d/e/ f)(ff!<)! |[Q:3/8=35]!mp!!>(! f[Q:3/8=34]e/B/d/c/!>)!!p! =A)[Q:3/8=36](cf | %18
 =eBd- dcf | =eBd)!<(! z (c/d/c/d/ | e)(e!<)!e!mp!!>(! ef/c/e/d/ | %21
 B3 =G2)!>)!!p![Q:3/8=34] z[Q:3/8=35] | z[Q:3/8=36] (cf =eBd- | dcf- f/=e/B/c/_e/d/) | %24
 z!<(! (c/d/c/d/ e)(ee!<)! |!>(! ed/c/B/c/!>)!!p! A)!<(! z z | %26
 z2!<)![Q:3/8=34] z!mp! z[Q:3/8=36] (ea[Q:3/8=35] | gd_f- fea- | %28
 a/g/d/e/_g/_f/) z!p!!<(! (e/=f/e/f/ | _g)(g!<)!g!mp!!>(! gf/c/e/d/ | %30
!p! B)!>)! z z z!<(! (d/e/d/e/ | f)(f!<)!f!mp!!>(! fe/B/d/c/ | =A)!>)!!p! (cf =eBd- | %33
 dcf- f/=e/B/c/_e/d/) |!<(! z (c/d/c/d/ e)(ee!<)! |!mp!!>(! ef/c/e/d/!>)! B2) z | z6!p![Q:3/8=34] | %37
!pp![Q:3/8=38] z2 z[Q:3/8=42] ([_GB_g]2 [GBg] | [_GB_g]6- | [GBg]3 [_GB_g]2 [GBg] | %40
!>(! [_GB_g]3 [FAf]3!>)! |!pp! [_FA_f]3) ([FAf]2 [FAf] | [_FA_f]6- | [FAf]3 [_FA_f]2 [FAf] | %44
!<(! [_F_f]3 [Ee]3!<)! |!p! =D)!<(! (=d/e/d/e/ f)(ff | f_g/f/e/A/ _c'3)!<)!!mp! | %47
!p! z!<(! (=d/e/d/e/ f)(ff | f_g/f/e/=A/!<)!!mp! =c'3) |!mp! (b3 !trill(!T=g3({fg)} | %50
 ba/e/a/_g/ g f2 | a_g/d/g/f/ fe/f/a/g/ |[Q:3/8=44]!mp!!<(! =A) (c/d/c/d/!<)! [Ae]2 [Bd] | %53
[Q:3/8=46] [Bd])!mp!!<(! ([Bd]/[ce]/[Bd]/[ce]/!<)! [B_f]2 [Be] | %54
[Q:3/8=48] [EBe])!mp!!<(! (e/=f/e/f/[Q:3/8=42] _g)(g[Q:3/8=38]g!<)! | %55
"_ten."[Q:3/8=20]!mp! _g3-[Q:3/8=36]!>(! g[Q:3/8=38]f/c/[Q:3/8=40]e/d/ | %56
[Q:3/8=42] B3!>)!!mp![Q:3/8=40] =G) z2[Q:3/8=38] |[Q:3/8=40]"_cresc." z (c[cf] [d=e]Bd- | %58
 dc[cf] =eBd | [Cc])([Ac]/[Bd]/[Ac]/[Bd]/ !>!e!>![Ee]!>![Ee] | %60
 ed/c/B/c/[Q:3/8=39] A)[Q:3/8=38] z[Q:3/8=36] z | z2 z!f! z[Q:3/8=38] (e[cea] | %62
 gd_f-"_cresc." fe[ea] | gd_f) ([EAc]/[Bd]/[ce]/[d=f]/[ce]/[df]/ | %64
 !>![_G_g]!>![Gg]!>![eg] !arpeggio!!>![Eg]f/c/e/d/ | B) x x [Bd](d/e/d/e/ | %66
 [Ff][df][df] fe/B/d/c/ |!<(! =A)[Q:3/8=39]([CAc][FAf] [=EB=e][B,EB]!arpeggio![Ed])!<)! | %68
 !wedge![CF=A]/ z/[Q:3/8=40] ([c=ac'][faf'] [=eb=e'][eb]!arpeggio![ed'] | %69
 [dbd']/[c=ac']/) ([cac']/[dbd']/[_ec'_e']/!<(![fd'f']/"_ritenuto"[Q:3/8=38] .[_ge'_g']).[ge'g'][Q:3/8=36].[ge'g']!<)! | %70
 .[_ge'_g'][K:bass]!ff!!ff![Q:3/8=35] ([_G,_CE][G,CE] [G,CE][Q:3/8=32][E,__B,_G][Q:3/8=30][G,B,G]) | %71
[K:treble]"^a tempo"[Q:3/8=46]!>(! (D/>!>)![E,__B,_C]/!<(!F/[B,CE]/A/!<)![CE_G]/ (_c/!<(![CDG]/)G/[CD=F]/_B/[DFA]/!<)! | %72
[Q:3/8=50] (d/!<(![D_FA]/)A/[DE=G]/_c/!<)![FGB]/ (e/!<(![E_GB]/)B/[E=F=A]/d/[GA=c]/!<)! | %73
 _g/"_dim."[=Aef]/b/[ef=a]/d'/[fac']/[Q:3/8=54] f'/[ac'e']/!8va(!!<(!_g'/[c'e'f']/[Q:3/8=60]=g'/[c'e'f']/ | %74
[Q:3/8=70] _g'/[c'e'f']/=g'/[c'e'f']/_g'/!<)![c'e'f']/[Q:3/8=80]!>(! =g'/[c'e'f']/_g'/[c'e'f']/=g'/[c'e'f']/!>)! | %75
[Q:3/8=80] =e'/f'/f''/^f'/=f''/g'/[Q:3/8=90] ^g'/=a'/!>(!=d''/c''/b'/=g'/ | %76
[Q:3/8=100] f'/=d'/e'/g'/f'/e'/!8va)! c'/=a/b/d'/c'/b/ | g/f/=d/e/g/f/ e/c/=A/B/d/!>)!c/ | %78
[Q:3/8=90] B/G/F/=D/E/G/[Q:3/8=80] F/E/[Q:3/8=70]C/=A,/[Q:3/8=60]C/G,/ | %79
[Q:3/8=50] F,2)[Q:3/8=46]"^a tempo"!>(! ([F,=A,=D]!p! [B,D]2 [A,D]!>)! | [B,=D]2!>(! [DB] D3!>)! | %81
 [=A,^C]2!>(! [C=A] [A,C]2 [^F,=C]!>)! |!<(! [G,B,]2 [G,CE]!<)!!>(! [=F,B,=D]2 [F,=A,C]!>)! | %83
 [F,B,=D]) z"^dolce"!p![Q:3/8=42]!<(! ([DF=d]!<)!!p! [CD^Fd]3 | %84
!>(! [B,=DGB]2!>)! [B,EG]!>(!{/=A} [B,EG]2 [=A,EF]!>)! | %85
 [B,=DF]) z[Q:3/8=40] ([DF=d] [DB]2)[Q:3/8=38] ([GBg]- |[Q:3/8=42] [GBg][Bf][B=e] [ABf]3-) | %87
 [ABf]2 ([=DAB]!>(! !>!B3!>)! | B2 [EGe] [EGe]2 [CEG] |!<(! [CEG]2 [B,=DB] [B,DB]2 [C=Ec]!<)! | %90
!p! [_EF-]6 | [=DF]2) ([D=d]!<(! [Dd]2 [DB] | [=DB]2 [DG]{/=A} [B,EG]2 [E=F] | %93
 [=DF]2) ([C^F=d]!<)! [B,GB]2)!mp!!<(! ([GBg]- | [GBg][FBf][=EB=e]!<)! [FBf]3- | %95
 [FBf]2 [=DAB] B3- | B2 [Ge] [Ge]3- | %97
 [Ge]2[Q:3/8=40]"^ritard."!<(! [CG][Q:3/8=38] [B,=DB]2[Q:3/8=36] [B,=Ec]!<)![Q:3/8=20][Q:3/8=24][Q:3/8=28] | %98
[Q:3/8=36]!>(! !arpeggio![=A,_Ec]2 [B,=DB]!>)! [B,DB]2)"^a tempo"[Q:3/8=60]!mp! (!>!D- | %99
 D/"_cresc."E/=D/=A/^F/E/) (!>!D/E/D/B/G/E/) | %100
[Q:3/8=64]!<(! (!>!^F,/E/=D/^F/c/=d/[Q:3/8=68] ^f/c'/c'/!<)![Q:3/8=50]=a'/)[Q:3/8=30]z/[Q:3/8=60]([bg']/ | %101
[Q:3/8=70]!>(! =a/^f'/[g_e']/^f/=d'/[ec']/ =d/b/[ca]/e/c'/[db]/!>)! | %102
!>(! c/=a/[=db]/[=A^f]/[Q:3/8=50][ca]/z/4!>)![Bg]/4[Q:3/8=60] [Bg]/)!<(! .^F/(F/=F/)[Q:3/8=60](F/=E/-)!<)! | %103
 (E/"_cresc."F/=E/=B/A/F/) (!>!E/F/E/c/=A/F/) | %104
[Q:3/8=64]!<(! (!>!^G,/F/=E/^G/=d/=e/[Q:3/8=68] ^g/=d'/d'/!<)![Q:3/8=50]=b'/)[Q:3/8=30]z/[Q:3/8=60]([c'=a']/ | %105
[Q:3/8=70]!>(! c'/=a'/[=b^g']/=a/f'/[^g=e']/ f/=d'/[=ec']/[=db]/[fd']/[ec']/!>)! | %106
!>(! =d/=b/[=ec']/[=B^g]/[Q:3/8=68][db]/!>)![c=a]/-)"^riten."!<(! [ca]/[Q:3/8=62](!>![ca][Q:3/8=60]!>![ca]!>![ca]/-)!<)! | %107
[Q:3/8=64]"^a tempo"!mp! ([ca]/[=d_b][c=a][_ec']/- [ec']/[db][c^f]/[Bg]/[db]/- | %108
 [db]/[c=a][=db]/[=A^f]/[ca]/- [ca]/[Bg]/{/a}[Bg]/[Af][Bg]/-) | %109
 ([Bg]/[ca][Bg][_db]/- [db]/[ca][B=e]/[Af]/[ca]/- | %110
 [ca]/[Bg][ca]/[G=e]/[Bg]/- [Bg]/[Af]/{/g}[Af]/[Ge][Af]/) | %111
!>(! ([Af]/"^ten"[B_g][Af]/[_Ge]/!>)![Bg]/ [Af]/[Bg]/[Af]/[Gc]/[Fd]/[Af]/ | %112
 [=Ge]/[Af]/[Ge]/f/[Fd]/e/ [Ec]/d/[DB]/c/!>![CA]/) z/ | %113
!>(! ([af']/"^ten"[b_g'][af']/[_ge']/[bg']/ [af']/[bg']/[af']/[gc']/[fd']/!>)![af']/ | %114
!>(! [=ge']/[af']/[ge']/f'/[fd']/e'/ [ec']/d'/[db]/c'/[ca]/)(f'/!>)! | %115
!>(! [ge']/[af']/[ge']/f'/[fd']/e'/ [ec']/d'/[db]/c'/!>)![ca]/) z/ | %116
!f![Q:3/8=60]!>(!!8va(! ([g'e'']/[a'f'']/[g'e'']/f''/[f'd'']/e''/ [e'c'']/d''/[d'b']/c''/[c'a']/b'/!>)! | %117
!>(! [bg']/a'/[af']/g'/[ge']/f'/!8va)! [fd']/e'/[ec']/d'/[db]/c'/!>)! | %118
!>(! [ca]/b/[Bg]/a/[Af]/!>)!g/[Q:3/8=55] [Ge]/f/[Q:3/8=54][Fd]/e/[Q:3/8=53][Ec]/d/ | %119
[Q:3/8=54]!<(! !trill(!TB3 =A/B/!<)!c/!>(!B/d/G/!>)! | A3- A)(=G/A/=G/A/ | %121
!>(! __BA_G!>)! _FF/E/{/_G}F/E/ |"_cresc." A2) (A- A=G/A/=G/A/ | %123
 _c/__B/B/A/A/_G/[Q:3/8=48] ([=G,=F]/[DE]/)[Q:3/8=46]([D_c]/[=G_B]/)[Q:3/8=44]([G_f]/[de]/)) | %124
!f![Q:3/8=44] [ea][ea][ea] [ea][eg][Be] | [e_g]!<(![eg][eg]!<)! g3 | ([c_g][cg][c_g] [cg][cf]c | %127
!mf! [=B=e][Q:3/8=42][Be][Q:3/8=40][Be][Q:3/8=36]!>(! e3!>)! | %128
!pp! =B/=A/)[Q:3/8=42]([=E=e][Ee] [Ee][=D=d][^C^c] | %129
 [^C^c][=B,=B][=A,=A][Q:3/8=40] c3)[Q:3/8=38][Q:3/8=36][Q:3/8=34] | %130
[Q:3/8=40] !arpeggio![C=e][=Ee][Ee] [Ee][=D=d][^C^c] | %131
 [^C^c][=B,=B][=A,=A][Q:3/8=39] c3[Q:3/8=38][Q:3/8=37] | %132
"^smorz"[Q:3/8=38] ([^C^c][=B,=B][=A,=A] c3 | %133
[Q:3/8=34] A/=A[Q:3/8=30]A[Q:3/8=26]A/)[Q:3/8=26] !fermata!z3[Q:3/8=110] (C=E=A^c=e=a^c'[Q:3/8=92]=a'c'[Q:3/8=110]{/=e'}=d'c'ae{/g}=feac{/e}=dcAE{/G}=FE[Q:3/8=92]AE{/G}FE[Q:3/8=80]AE[Q:3/8=50]{/G}F)[Q:3/8=28] E!>(! A2-[Q:3/8=24] (!fermata!A[Q:3/8=30]_B^G!>)! | %134
[Q:3/8=38]"^a tempo"!p! =AB=d ^c=GB | =AB=d!<(! ^c=GB) | z (=A/B/A/B/ ccc!<)! | %137
!mp!!>(! cB/=A/G/A/!>)!!p! [=A,F])!<(! z z | z2 z (cd!<)!f |!mp! =eBd) z (c/d/!<(!c/d/ | %140
 ee!<)!e!mp! e!>(!d/c/B/c/ |!mp! [CA])!>)!!<(! z z z2 z | (e_f!mf!a!<)! gdf) | %143
!>(! z (e/_f/e/f/ _ggg!>)! |!mp! _g!<(!=f/=c/e/d/ B) z z | z (d/e/d/e/ f)!<)!!mf!(ff | %146
!>(! fe/B/d/c/!>)! =A)!mp!(cf | =eBd) z (cf- | f/=e/B/c/_e/d/) z!<(! (c/d/c/d/ | %149
 e)(e!<)!e!mf!!>(! ef/c/e/d/ | B3!>)!!mp! =G)[Q:3/8=36] z[Q:3/8=34] z | %151
!mp![Q:3/8=40]!<(! z (c!<)!f-!>(! (8:6:8f/=e/=A/B/=B/c/_e/d/)!>)! | %152
!mp! z!<(! (7:4:7(c/d/=B/c/a/g/!<)!f/)!mf!!>(! (f/!>)!=e/) (7:4:7z/ (=A/_B/=B/c/_e/d/) | %153
!mp! z!<(! (6:4:6(c/d/c/ =B/c/d/ (10:6:10=d/e/c'/g/_b/a/c/_d/=d/e/!<)! | %154
!mf!!>(! (10:6:10=e/g/f/_e/c/e/d/F/G/!>)!E/ A) z z | %155
 z2[Q:3/8=36] z!mp![Q:3/8=34]!<(! z[Q:3/8=40] (ea-!<)![Q:3/8=38] | %156
!mf! (3a/g/=B/!>(! (3c/d/=d/ (3e/_g/!>)!_f/) z/!mf!!<(! (e/ (3_f/=d/e/ (3c'/_b/__b/ | %157
!mf! (3a/!<)!!>(!g/=B/ (3c/d/=d/ (3e/_g/!>)!_f/)!mf! z!<(! (3(e/=f/e/ (3=d/e/f/ | %158
[Q:3/8=24] (3_g/!<)!!f![Q:3/8=36]_g'/!>(!f'/[Q:3/8=38](3_f'/e'/d'/[Q:3/8=40](3c'/b/a/ (3g/=f/=e/(3_e/d/=B/(3c/e/!>)!d/ | %159
[Q:3/8=28]!mp! (3c/_B/) z/[Q:3/8=40] z2 z!<(! (3(d/e/d/ (3c/d/e/[Q:3/8=36] | %160
 (3f/f'/c'/ (3e'/b/a/ (3f/e/!<)!d/!>(! T_c/>B/ (3c/d/_e/!>)!!mp! (3=A/=c/B/) | %161
!<(! (3(=A/c/=e/ (3_g/f/=a/ (3c'/f/!<)!f'/!>(! (3=e'/c'/_e'/ (3d'/b/=g/ (3=e/d/B/)!>)! | %162
!mp!"_cresc." (3(=A/c/=e/ (3_g/f/=a/ (3c'/!8va(!f'/f''/[Q:3/8=42] (3=e''/c''/_e''/ (3d''/b'/g'/!8va)! (3=e'/c'/b/ | %163
[Q:3/8=48]!mp!!<(! (3=a/c'/_e'/ (3f'/_a'/_g'/ (3e'/c'/=a/[Q:3/8=54] (3_g/e/!<)!c/!>(! (3=A/B/=B/ (3c/_d/_B/!>)! | %164
[Q:3/8=60]!<(! (3=A/c/e/ (3f/_a/_g/ (3e/c/=A/ (3_G/E/C/!>(! (3=A,/B,/=B,/ (3C/_D/_B,/)!>)! | %165
 (3=A,/B,/=B,/ (3C/D/_B,/ (3A,/B,/=B,/!<)!!mf!"_dim."!>(! (3C/D/_B,/ (3A,/B,/=B,/ (3C/D/_B,/ | %166
 (3=A,/C/E/ (3F/c/_A/ (3G/_G/F/ (3_F/E/=D/ (3_D/C/_C/ (3B,/=A,/_A,/ | %167
[I:staff +1] (3G,/_G,/F,/ (3_F,/E,/=D,/ (3_D,/C,/_C,/[Q:3/8=46] (3B,,/=A,,/_A,,/[Q:3/8=42] (3=G,,/_G,,/=F,,/[Q:3/8=38] (3_F,,/E,,/__E,,/!>)! | %168
"^a tempo"[Q:3/8=46][I:staff -1] z2 ([FAf] [FAf]3 | [Fd]2 [FB] [C_GB]2 A | %170
!p!!<(! A2) ([Af][Q:3/8=44] [DAd]2)!mp! ([_cdb]!<)![Q:3/8=40] | %171
[Q:3/8=46]!>(! [_cdb][cda][cd=g]!>)!!p![Q:3/8=44] [cda]3)[Q:3/8=40][Q:3/8=30][Q:3/8=42] | %172
[Q:3/8=46]{/F} (!arpeggio![F_ca]2 [Fcd] [Fcd]3- | [Fcd]3!<(! [_G_cd]2!mp! [GB_g])!<)! | %174
!mp![Q:3/8=48]!<(! (18:12:9(_g x B x =c x d x g!<)! |!mf!!>(! (18:12:9x f x f x e x c!mp!B!>)! | %176
!mp![Q:3/8=46]!>(! [B,B]!>)![A,A])!f! [faf'] [faf']2 [dad'] | [dfd']F[db] [_gb]2 [ea] | %178
!>(! [Afa]2!>)! ([faf'] [dad']2)[Q:3/8=42] (!arpeggio![=gd'b'] | %179
[Q:3/8=44]!>(! [be'b'][ae'a'][ge'g']!>)![Q:3/8=46] [ae'a']2) ([Aa] | %180
!>(! [Aea]2!>)! [Ad]!<(! d2 [d_g] | [F_cdf]2!<)! [cdf_c']!>(! [cd_gc']2 [Bdb])!>)! | %182
!>(! ([Bdeb]2 [EBde]!>)!!<(! [Ece]2 [ea] | [Aa]!<)![Gg] [_deg_d']!>(! [dead']2 [ceac'])!>)! | %184
!f!!>(! ([c_gc'][Bdgb][_Gdg] [DGd][B,DB]>[A,DA]!>)! |!mp! [A,DA]2 [_G,D_G]-) [G,DG]([F,DF]>[G,DG] | %186
 [=G,DF=G]2"_cresc." [G,FG] [A,FA]2 [=A,F=A] |!mf! [CFc]2 [B,FB]) ([DGd][=B,G=B][CGc] | %188
 [EAe]2 [DAd]) z ([^Dc^d][=Ec=e] | [Ff][Bdb][Afa][Q:3/8=44] [_Gca]2[Q:3/8=38] [Gc_g][Q:3/8=40] | %190
[Q:3/8=40] [Fdf])[Q:3/8=50]!<(! (3z/ (F/A/ (3f/f/!<)!a/!ff!!>(! (3!>!f'/a/f/ (3f/A/F/ (3F/A,/F,/)!>)! | %191
!f!!<(! (3(!>!F/F,/=A,/ (3F/F/=A/ (3f/f/!<)!=a/!ff!!>(! (3!>!f'/a/f/ (3f/A/F/ (3F/A,/F,/)!>)! | %192
!f!!<(! (3(!>!F/F,/B,/ (3F/F/B/ (3f/f/!<)!b/!ff!!>(! (3!>!f'/b/f/ (3f/B/F/ (3F/B,/F,/)!>)! | %193
!f!!<(! (3(!>!G/F,/=B,/ (3G/F/=B/ (3g/f/!<)!=b/!ff!!>(! (3!>!g'/b/f/ (3g/B/F/ (3G/B,/F,/!>)! | %194
[Q:3/8=40] [A,CFA])!ff![Q:3/8=74] (3z/[I:staff +1] (C,/F,/ (3A,/=B,/C/[I:staff -1] (3F/A/=B/ (3c/f/a/ (3=b/c'/f'/ | %195
 .a') .[FAdf] .[DAd] .[_Gd_g] .[=E=Gc=e] .[c=gc'] | %196
 .[cfc'] (3z/[I:staff +1] (C,/F,/ (3A,/=B,/C/[I:staff -1] (3F/A/=B/ (3c/f/a/ (3=b/c'/f'/ | %197
 .a') .[FAdf]!<(! .[F,A,DF] .[_G,D_G] .[=G,C=E] .[C=Gc] | %198
[Q:3/8=76]"^cresc." .[CFc] .[=DF=B=d][Q:3/8=80] .[^D^FB^d] .[F^A^c^f][Q:3/8=84] .[Bf=b] .[^GB^e^g] | %199
[Q:3/8=88] .[^A^c^f^a] .[c^e^g^c'][Q:3/8=92] .[fc'^f'] .[=e=gc'=e'][Q:3/8=96] .[=f=c'=f'] .[_dfg_d']!<)! | %200
[Q:3/8=72] [cfgc'] z z[Q:3/8=64] (CDF) | %201
[Q:3/8=60]!fff! .[G,C=EG].[F,G,=B,=DG].[G,CEG][Q:3/8=30] z2 !fermata!z | %202
[Q:3/8=80][Q:3/8=80][Q:3/8=80]!pp! ([cgc']6 | [FG=B=dg]6 | [=EG_B=e]6 | [=DF=d]6 | [G,C=E]6- | %207
 [G,CE]6- | [G,CE]6- | [G,CE]2) z z2 z | %210
!f![Q:3/8=50]!<(! (3(A,/[CA]/F/ (3G,/[A,=B,]/F,/ (3D/[_B,C]/!<)!G/!>(! (3C/[FB]/A/ (3G/=A,/[B,F]/ (3D/[B,C]/G/)!>)! | %211
!<(! (6:4:3z/ !>!A2 (A/ A/>!<)!d/-!>(! (3d/c/=B/ (3_B/=A/_A/- (3A/=G/c/)!>)! | %212
!f!!<(! (3(A/[ca]/f/ (3G/[A=B]/F/ (3d/[_Bc]/!<)!g/!>(! (3c/[fb]/a/ (3g/=A/[Bf]/ (3d/[Bc]/g/)!>)! | %213
!<(! (6:4:3z/ !>!a2 (a/ a/>!<)!d'/-!>(! (3d'/c'/=b/ (3_b/=a/_a/- (3a/=g/c'/)!>)! | %214
[Q:3/8=54] a x x _g x x |!<(! =e x x x3!<)! | %216
!>(! (3([ac']/[e'g']/[d'f']/ (3c'/e'/[bd']/ (3a/c'/[gb]/) (3(c/[gb]/[fa]/ (3A/[eg]/!>)![df]/ (3G/[c=e]/B/) | %217
 (3(B/[=eg]/f/!>(! (3f/_e/d/ (3d/c/!>)!B/ A!>!G- G/>)(c/ | %218
 [=DF]/>)(([_DB]/ [CE]/>))(([CA]/ [=B,=D]/>))(([_B,G]/ [=A,C]/>))([_A,F]/ [G,_DF])[G,C=E] | %219
[K:bass] [C_E] [B,D]2 C2 ([F,A,F] |!<(! [F,G,F][F,=A,][F,B,] [G,B,C]!<)![_A,C_A][B,C=E] | %221
!>(! [A,CF][_G,C_E][F,B,D] [F,A,C]2!>)! [=E,B,C]) | %222
[K:treble]!ff!!<(! (3([^G,F]/=A,/[C_G]/ (3[=D=A]/E/[Gc]/ (3[^G_e]/A/[c_g]/ (3[=d=a]/e/[gc']/!8va(! (3[^ge']/a/[c'_g']/ (3[=d'=a']/e'/[g'c'']/!<)! | %223
!fff! .[=a'e''])!8va)!!>(! ([=A,C=A]!>)![B,B] [DFBd][C=EBc][=E,B,E]) | %224
!<(! (3([^G,F]/=A,/[C_G]/ (3[=D=A]/E/[Gc]/ (3[^G_e]/A/[c_g]/ (3[=d=a]/e/[gc']/!8va(! (3[^ge']/a/[c'_g']/ (3[=d'=a']/e'/[g'c'']/ | %225
!fff! .[=a'e''])!<)!!8va)!!>(! ([=Ac=a]!>)!!ff![Bb] [dfbd'][c=ebc'][=EBe] | %226
 [FAf])[K:bass]"^accel.  sin'al  fine"!p! (3D,/C,/F,/"_cresc." (3A,/F,/B,/[Q:3/8=58] (3A,/=E,/G,/ (3A,/G,/C/[K:treble] (3D/C/A/ | %227
[Q:3/8=62] (3G/=B,/C/ (3D/C/F/ (3A/F/_B/[Q:3/8=66] (3A/=E/G/ (3A/G/c/ (3d/c/g/ | %228
[Q:3/8=40] (3f/[Q:3/8=70] (=B,/C/ (3D/C/F/ (3A/F/_B/[Q:3/8=74] (3A/=E/G/ (3A/G/c/ (3d/c/a/ | %229
[Q:3/8=78] (3g/=B/c/ (3d/c/f/ (3a/f/_b/[Q:3/8=80] (3a/=e/g/ (3a/g/c'/ (3d'/c'/g'/ | %230
!ff![Q:3/8=82] (3f'/!8va(!f''/=e''/ (3_e''/d''/c''/ (3b'/a'/g'/ (3f'/=e'/_e'/ (3d'/c'/b/ (3a/g/f/)!8va)! | %231
!>(! (3(a'/g'/f'/ (3e'/d'/c'/ (3b/a/g/ (3f/e/d/ (3c/B/A/ (3G/F/D/!>)! | %232
!f!!<(! (3C/)(F/A/ (3c/f/a/!8va(! (3c'/f'/!<)!a'/!ff! (3d''/c''/a'/ (3f'/b'/a'/ (3f'/c'/g'/!8va)! | %233
 (3f'/c'/a/ (3d'/c'/a/ (3f/b/a/ (3f/c/g/ (3f/c/A/ (3d/c/A/ | %234
 (3F/B/A/ (3F/C/G/ (3F/C/A,/[I:staff +1] (3D/C/A,/ (3F,/B,/A,/ (3F,/C,/G,/ | %235
 (3F,/C,/A,,/ (3D,/C,/A,,/ (3F,,/D,/C,/ (3A,,/F,,/D,/ (3C,/A,,/F,,/ (3D,/C,/A,,/ | %236
[Q:3/8=100] F,,)[I:staff -1] z z[K:treble]!fff! .[FAdf] z z | %237
[Q:3/8=90] .[dfgd'] z z[Q:3/8=80] .[G,B,C=E] z z |[Q:3/8=40] !fermata![F,A,CF]6 |] %239
V:2
 x3 G/c/G/c/G/c/ | G/[Bc]/G/[Bc]/G/[Bc]/ G/[=Ac]/F/[Ac]/=E/[Ac]/ | %2
 =E/[G=B]/=D/[GB]/C/G/ E/[Gc]/E/[Fc]/E/[Gc]/ | =E/c/G/[Bc]/G/[Bc]/ G/[=Ac]/F/[Ac]/E/[Ac]/ | %4
 =E/[G=B]/=D/[GB]/C/G/ E/"_dim."[Gc]/E/[Fc]/E/[Gc]/ | =E/[G=B]/=D/[GB]/C/G/ E/[Gc]/E/[Fc]/E/[Gc]/ | %6
 =E/[Fc]/E/[Gc]/E/[Fc]/ E2 x | x6 | x6 | x6 | x6 | x6 | x6 | x6 | x6 | x6 | x6 | x6 | x6 | x6 | %20
 x6 | x6 | x6 | x6 | x6 | x6 | x6 | x6 | x6 | x6 | x6 | x6 | x6 | x6 | x6 | x6 | x6 | x6 | x6 | %39
 x6 | x6 | x6 | x6 | x6 | A3 AB_c | x6 | x6 | x6 | x6 | x3 _d3 | d c2 (ed/A/d/c/ | %51
 c B2) Bc/d/B/c/ | E [_G=A]2- G!>(! F2 | F!>)! =G2- G!>(! _G2 | x!>)! x5 | x6 | x6 | %57
 z/ A/A/G/G/F/ G/A/G/F/=E/B/ | [CB]/A/A/G/G/F/ [Bd]/[Ac]/[GB]/[FA]/[=EG]/[GB]/ | %59
 [GB]/[FA]/F_F [EAc]/[DB]/B/A/A/G/ | [DG]/F/F/G/F/G/ F/E/(E/=D/)(D/_D/) | %61
 (D/C/)(C/=F/E/[DGB]/ [CBc]/E/)[Ec]/B/B/A/ | %62
 [d_f]/[ce]/[Bd]/[Ac]/[GB]/[Bd]/ [Ed]/c/c/[Bd]/[Bd]/[Ac]/ | [d_f]/[ce]/[Bd]/[Ac]/[GB]/[Bd]/ x3 | %64
 e/f/e/d/c/B/ =A2 A | F/E/D/[B,_G]/F/[E=Ac]/ D/F/B/c/B/c/ | d/c/B/A/_G/F/ G/d/c/G/E/=E/ | %67
 F/ x/ x x x2 =A,/B,/ | x3 x B/=A/A/B/ | x6 | x[K:bass] x5 |[K:treble] x6 | x6 | x4!8va(! x2 | x6 | %75
 x6 | x3!8va)! x3 | x6 | x6 | x6 | x3 B,2 ^G, | x6 | x6 | x6 | x6 | x6 | x6 | x3 [=DA]2 [EG] | %88
 [EG]2 x x3 | x6 | (B,[I:staff +1]=A,[I:staff -1]=D C[I:staff +1]G,[I:staff -1]=A, | %91
[I:staff +1] G, F,2)[I:staff -1] x3 | x6 | x6 | x6 | x3 [=DA]2!<(! [EG] | [EG]2 x!<)! x3 | x6 | %98
 x6 | C3 B,3 | x6 | x6 | x6 | !>!=D3 C3 | x6 | x6 | x6 | x6 | x6 | x6 | x6 | x6 | x6 | x6 | x6 | %115
 x3 x2 !>!x/ x/ |!8va(! x6 | x3!8va)! x3 | x6 | D6 | C/E/!<(!B,/E/C/E/ D/_F/E/_G/D/F/!<)! | %121
 D/E/D/_F/_G,/D/ =G,/D/G,/D/G,/D/ | C/E/B,/E/C/E/ A,/D/A,/_G/A,/_F/ | D/E/D/_F/_G,/D/ x3 | %124
 d/=c/c/B/c/A/ B/A/B/F/G/E/ | B/=A/B/_G/B/G/ B/G/B/G/B/G/ | __B/A/A/=G/A/E/ A/=G/A/=E/F/C/ | %127
 =E/^D/!arpeggio!^F/=B,/!arpeggio!E/B,/ =B/E/B/"_dim."D/B/=D/ | %128
 ^C/=G/=E/[G=A]/E/[GA]/ E/[^FA]/=D/[FA]/C/[FA]/ | ^C/[=E^G]/=B,/E/=A,/E/ C/[E=A]/C/[=DA]/C/[EA]/ | %130
 ^C/[G=A]/=E/[GA]/E/[GA]/ E/[^FA]/=D/[FA]/C/[FA]/ | %131
 ^C/^G/=B,/[CG]/=A,/[C^F]/ !arpeggio!^G,/[^EG]/C/[EG]/C/[EG]/ | %132
 ^C/[=E^G]/=B,/E/=A,/E/ C/[E=A]/C/[=DA]/C/[EA-]/ | ^C/=D/C/=E/C/D/ C3- x4 x x x2 x4 x8 x16 | x6 | %135
 x6 | x2 G C=DF | [B,F]=D[B,=E] x3 | (C_DF =E[I:staff +1]B,D) |[I:staff -1] x3 x2 B | %140
 EFA [DA]F[DG] | x3 (E_FA | GA_c B__BA) | x2 d _G_cB | =A3 B x z | x6 | x6 | x6 | x6 | x6 | x6 | %151
 x6 | x241/40 | x6 | x6 | x6 | x6 | x6 | x6 | x6 | x6 | x6 | x7/3!8va(! x8/3!8va)! x | x6 | x6 | %165
 x6 | x6 | x6 | x6 | x6 | _GF!arpeggio!E x3 | x3 x2 (3:2:4x (3x/4x/4x/4 | x2 x4 | x6 | %174
 (3_g/_G/B/ (3B,/B/E/ (3G/B,/c/ (3G/B/D/ (3d/G/B/ (3G/g/B/ | %175
 (3d/_G/f/ (3B/d/G/ (3f/A/c/ (3G/e/A/ (3c/E/c/ (3G/B/C/ | F2 x x3 | x3 cBA | %178
 ed x x x3/4!f! x/8-x/8- x | x6 | x3 A=G_G | x6 | x3 B__BA | [de]2 x x3 | x6 | x6 | x6 | x6 | x6 | %189
 x6 | x6 | x6 | x6 | x6 | x6 | x6 | x6 | x6 | x6 | x6 | x6 | x6 | x6 | x6 | x6 | x6 | x6 | x6 | %208
 x6 | x6 | x6 | (3(A,/E/D/{/E} (3D/C/_G/ (3G/F/) z/ (3D/F/D/ (3F/D/F/ (3B,/=E/C/ | x6 | %213
 (3(A/e/d/{/e} (3d/c/_g/ (3g/f/) z/ (3d/f/d/ (3f/d/f/ (3B/=e/c/ | %214
 (3([=Bd]/!<(![ce]/[^c=e]/(3[df]/[^d^f]/[eg]/(3[=fa]/[eg]/!<)![_b_d']/) (3([=A=c]/[_B_d]/[=B=d]/(3[c_e]/[^c=e]/[df]/(3[_e=g]/[df]/[_a_c']/) | %215
 (3([GB]/[^G=B]/[=Ac]/(3[_Bd]/[=B=d]/[c_e]/(3[^c=e]/[df]/[^d^f]/ (3[e=g]/[f=a]/[eg]/(3[df]/[eg]/[fa]/(3[g_b]/[_a=c']/[b_d']/) | %216
 x (3:2:2c'b/ (3:2:2ag/ cA(3:2:2GB/ | (3:2:2BA/ (3:2:2cB/ (3:2:2AG/ F2 =E/>(_E/ | x/) x/ x2 x3 | %219
[K:bass] F,2 =E,/>F,/ [G,B,][F,A,] x | x6 | x6 |[K:treble] x4!8va(! x2 | x!8va)! (3E/F/_G/F x3 | %224
 x4!8va(! x2 | x!8va)! (3e/f/_g/f x3 | x[K:bass] x4[K:treble] x | x6 | x6 | x6 | %230
 x/3!8va(! x17/3!8va)! | x6 | x2!8va(! x4!8va)! | x6 | x6 | x6 | x3[K:treble] x3 | x6 | x6 |] %239
V:3
!ped! z2 z!>(! (=EE!ped-up!!ped!=D!ped-up! | %1
!ped! =DC)!>)! z!ped-up!!ped! (F,,/C/=A,/C/!ped-up!!ped!=D,/C/!ped-up! | %2
!ped! G,,/G,/[F,=B,]/G,/!ped-up!!ped!=E,/G,/ C,/G,/C/=A,/!ped-up!!ped!G,/) z/!ped-up! | %3
!ped! (.C,,/G,/C/=D/=E)!ped-up!!ped! (.F,,/C/=A,/C/!ped-up!!ped!=D,/C/)!ped-up! | %4
!ped! (G,,/G,/[F,=B,]/G,/!ped-up!!ped!=E,/G,/ C,/G,/C/=A,/!ped-up!!ped!G,/) z/!ped-up! | %5
!ped! G,,/G,/[F,=B,]/G,/!ped-up!!ped!=E,/G,/ C,/G,/C/=A,/!ped-up!!ped!G,/C,/!ped-up! | %6
!ped! C/=A,/G,/C,/C/A,/!ped-up!!ped! !fermata!G,2!ped-up!!ped! z | %7
 z2 z!ped-up!!ped! .F,,[K:treble][CFA][A,CF]!ped-up! | %8
[K:bass]!ped! .F,[K:treble][D=EG][B,DE]!ped-up![K:bass]!ped! .F,,[K:treble][CFA][A,CF]!ped-up! | %9
[K:bass]!ped! .F,[K:treble][D=EG][B,DE]!ped-up![K:bass]!ped! .F,[K:treble][CFA][A,CF]!ped-up! | %10
[K:bass]!ped! .E,[CA].E,!ped-up!!ped! .E,,[DEG][G,DE]!ped-up! | %11
!ped! A,,([A,CE][E,A,C] [A,CF]!ped-up![A,CE][E,A,C]) | %12
!ped! .A,,,[K:treble]"_simile"[EAc][CEA]!ped-up![K:bass]!ped! .A,[K:treble][_FGB][DFG]!ped-up! | %13
[K:bass]!ped! .A,,[K:treble][EAc][CEA]!ped-up![K:bass]!ped! .A,[K:treble][_FGB][DFG]!ped-up! | %14
[K:bass]!ped! .A,,[K:treble][EAc][CEA]!ped-up![K:bass]!ped! .E,,[K:treble][E_GB][B,EG]!ped-up! | %15
[K:bass]!ped! .F,,[K:treble][E=A][=A,EF]!ped-up![K:bass]!ped! .B,,[B,DF][F,B,D]!ped-up! | %16
!ped! ._G,,[B,D_G][_G,B,D]!ped-up!!ped! .D,,[A,DF][F,A,D]!ped-up! | %17
!ped! .E,,[B,C_G][_G,B,E]!ped-up!!ped! .F,,[K:treble][CF=A][=A,F]!ped-up! | %18
[K:bass]!ped! .F,[K:treble][D=EG][B,DE]!ped-up![K:bass]!ped! .F,,[K:treble][CF=A][=A,CF]!ped-up! | %19
[K:bass]!ped! .F,[K:treble][D=EG][B,DE]!ped-up![K:bass]!ped! .F,,[K:treble][C_E_G][_G,B,E]!ped-up! | %20
[K:bass]!ped! .F,[K:treble][E_GB][CEG]!ped-up![K:bass]!ped! .F,,[K:treble][E=A][=A,EF]!ped-up! | %21
[K:bass]!ped! .B,,[B,DF][F,B,D]!ped-up!!ped! .C,[B,C=E][G,B,C]!ped-up! | %22
!ped! .F,,[CFA][A,CF]!ped-up!!ped! .F,[D=EG][B,DE]!ped-up! | %23
!ped! .F,,[CFA][A,CF]!ped-up!!ped! .F,[D=EG][B,DE]!ped-up! | %24
!ped! .F,[A,CA]._F,!ped-up!!ped! .E,[CA].E,!ped-up! | %25
!ped! .E,,[DG][E,G,D]!ped-up!!ped! .A,,([A,CE][E,A,C])!ped-up! | %26
!ped! .A,,([A,C_F][_F,A,C])!ped-up!!ped! .A,,,[K:treble][EAc][CEA]!ped-up! | %27
[K:bass]!ped! .A,[K:treble][_FGB][DFG]!ped-up![K:bass]!ped! .A,,[K:treble][EAc][CEA]!ped-up! | %28
[K:bass]!ped! .A,[K:treble][_FGB][DFG]!ped-up![K:bass]!ped! .A,,[K:treble][EAc][CEA]!ped-up! | %29
[K:bass]!ped! .E,,[K:treble][E_GB][B,EG]!ped-up![K:bass]!ped! .F,,[K:treble][E=A][=A,EF]!ped-up! | %30
[K:bass]!ped! .B,,[B,DF][F,B,D]!ped-up!!ped! ._G,,[B,D_G][_G,B,D]!ped-up! | %31
!ped! .D,,[A,DF][F,A,D]!ped-up!!ped! .E,,[B,C_G][_G,B,C]!ped-up! | %32
!ped! .F,,[K:treble][CF=A][=A,CF]!ped-up![K:bass]!ped! .F,[K:treble][D=EG][B,DE]!ped-up! | %33
[K:bass]!ped! .F,,[K:treble][CF=A][=A,CF]!ped-up![K:bass]!ped! .F,[K:treble][D=EG][B,DE]!ped-up! | %34
[K:bass]!ped! .F,,[K:treble][C_E_G][_G,B,E]!ped-up![K:bass]!ped! .F,[K:treble][EGB][CEG]!ped-up! | %35
[K:bass]!ped! .F,,[K:treble][E=A][=A,EF]!ped-up![K:bass]!ped! B,,!>(!([B,DF][F,B,D]!ped-up! | %36
 [B,D_G]!ped![B,DF][F,B,D] [D,F,B,])!>)!"^dimin." ([B,,,B,,]!ped-up![A,,,A,,] | %37
!ped! [_G,,,_G,,])"_legato" ([D,,D,][G,,_G,] [B,,B,][E,E]!ped-up![B,,B,] | %38
!ped! [D,D][E,E][B,,B,] [D,D][A,,A,][B,,B,]!ped-up! | %39
!ped! [_G,,_G,] [E,,E,][B,,,B,,] [D,,D,][A,,,A,,][B,,,B,,]!ped-up! | %40
!ped! [_G,,,_G,,]) ([E,E][B,,B,] [D,D][A,,A,][B,,B,]!ped-up! | %41
!ped! [_C,_C]) ([_C,,C,][_F,,_F,] [A,,A,][D,D][A,,A,]!ped-up! | %42
!ped! [_C,_C][D,D][A,,A,] [C,C][_G,,_G,][A,,A,]!ped-up! | %43
!ped! [_F,,_F,] [D,,D,][A,,,A,,] [_C,,_C,][_G,,,_G,,][A,,,A,,]!ped-up! | %44
!ped! [_F,,,_F,,]) ([D,D][A,,A,] [_C,_C][B,,B,][A,,A,]!ped-up! | %45
!ped! .[B,,,B,,])"^mezza voce" [A,=D][DA] z [A,DA]!ped-up![F,A,D] | %46
!ped! _C,[A,EA][F,A,E]!ped-up!!ped! F,,[A,EA][F,A,E]!ped-up! | %47
!ped! .B,,[F,=D][DA] _C,[A,DA]!ped-up![F,A,D] | %48
!ped! .=C,[=A,E=A][F,A,E]!ped-up!!ped! .F,,[A,EA][F,A,E]!ped-up! | %49
!ped! .B,,[B,=D_A][F,B,D]!ped-up!!ped! .E,,[B,_DG][E,B,D]!ped-up! | %50
!ped! .A,,[A,E_G][E,A,C]!ped-up!!ped! .D,,[A,DF][F,A,D]!ped-up! | %51
!ped! ._G,,[B,DF][_G,B,D]!ped-up!!ped! .C,,[G,E] z!ped-up! |!ped! .F,, (E/F,/!ped-up!E/D/ C2 B, | %53
 B,) (_F/F,/F/E/ D2 C | .C) z z!ped! z2 z | z2 z .F,,[K:treble][E=A]!ped-up![=A,EF] | %56
[K:bass]!ped! .B,,[B,DF][F,B,D]!ped-up!!ped! .C,[B,C=E][=E,B,C]!ped-up! | %57
!ped! F,,[F,A,C][A,CA]!ped-up!!ped! !arpeggio![F,,D,G,][F,B,D][B,DG]!ped-up! | %58
!ped! F,,[F,A,C][A,CA]!ped-up!!ped! !arpeggio![F,,D,G,][F,B,D][B,DG]!ped-up! | %59
!ped! [F,,C,][C,F,A,C][_F,,_F,]!ped-up!!ped! .[E,,E,] D/C/C/B,/!ped-up! | %60
!ped! x/ E,2!ped-up!!ped! x/!ped-up!!ped! (D/C/)(C/=B,/)(B,/A,/)!ped-up! | %61
 A, x x!ped! .[A,,,A,,] [E,A,C][E,A,CE]!ped-up!!ped! | %62
 !arpeggio![A,,_F,B,][F,G,B,D][G,B,D_F]!ped-up!!ped! .[A,,,A,,][E,A,C][E,A,CE]!ped-up!!ped! | %63
 !arpeggio![A,,_F,B,][F,G,B,D][G,B,D_F]!ped-up!!ped! .[A,,,A,,][E,A,C][A,CA]!ped-up!!ped! | %64
 !arpeggio![E,,B,,E,][E,_G,B,C][B,CE_G]!ped!!ped-up! x/ F,3/2 F,!ped-up! | %65
 [B,D]/(_G,/F,/[E,,E,]/[D,,D,]/[C,,C,]/!ped! .[B,,,B,,])[F,B,D][B,DF]!ped-up!!ped! | %66
 !arpeggio![D,,A,,D,][F,A,D][A,DA]!ped-up!!ped! [E,,E,][_G,B,E]!ped-up![_G,,G,] | %67
!ped! .[F,,F,]/!>(! ([_G,_G]/[F,F]/!ped-up![=E,=E]/!ped![_E,_E]/[C,C]/!ped-up!!ped! [D,D]/[B,,B,]/[=G,,=G,]/!ped-up![_G,,_G,]/!ped![D,,D,]/[_G,,,G,,]/!ped-up!!>)! | %68
!ped! .[F,,,F,,]/)!>(! ([_G,_G]/[F,F]/!ped-up![=E,=E]/!ped![_E,_E]/[C,C]/!ped-up!!ped! [D,D]/[B,,B,]/[=G,,=G,]/!ped-up![_G,,_G,]/!ped![D,,D,]/[_G,,,G,,]/!ped-up!!>)! | %69
!ped! [=E,,,=E,,]/[F,,,F,,]/)!ped-up!!ped! ([_G,_G]/[F,F]/[_E,_E]/[D,D]/!ped-up!!ped! [C,C]/[B,,B,]/[=A,,=A,]/[_G,,G,]/[_E,,E,]/[C,,C,]/ | %70
 .[=A,,,=A,,])!ped-up!!ped! ([A,,,A,,][B,,,B,,] [B,,,B,,]!ped-up!!ped![_C,,_C,][E,,,E,,]!ped-up! | %71
!ped! .[_G,,,_G,,]) z/!ped-up! (_G,/_C/__B,/!ped! .[A,,,A,,]) z/ (A,/!ped-up!D/C/ | %72
!ped! .[B,,,B,,]) z/ (A,/!ped-up!E/D/!ped! .[=C,,=C,]) z/ (C/!ped-up!F/E/ | %73
!ped! .[F,,,F,,]) z/[K:treble] (c/f/e/"^accel." .F)!ped-up! z/!ped! (=a/.c/a/ | %74
 .F/=a/.c/a/.F/a/ .c/a/.F/a/.c/a/ |"^leggiermente" ._e) z z4 | z6 | %77
[K:bass] z2 z z (C/=D/F/"^ritenuto"E/ | =D/B,/=A,/F,/G,/B,/ A,/G,/E,/C,/!>(!E,- | %79
 E,/=D,/!ped-up!C,/B,,/!p!F,,)!>)!!ped! [B,,F,]2 [F,,F,] | %80
!ped! [B,,F,]2 [F,,F,]!ped-up!!ped! [B,,F,]2 [=E,,=E,]!ped-up! | %81
!ped! [=A,,=E,]2 [=E,,E,]!ped-up!!ped! [A,,E,]2 [=D,,=D,]!ped-up! | %82
!ped! [G,,=D,]2 C,,!ped-up!!ped! F,,2 F,,!ped-up! | %83
!ped! [B,,,B,,] z [B,,F,B,]!ped-up!!ped! [=A,,=D,=A,]3!ped-up! | %84
 [G,,=D,]2 C,!ped-up!!ped! C,2 [F,,F,] | %85
!ped! [B,,,B,,] z [B,,F,B,] [B,,F,B,]2!ped-up!!ped! [B,^C=E]-!ped-up! | %86
 [B,CE][B,=DF][B,^CG]!ped-up!!ped! [B,DA]2 .[B,,,B,,] | .[B,,,B,,] z [B,,B,] [B,,B,]2 [E,B,] | %88
 [E,B,]2!ped! [C,C] [C,C]2 [C,G,]!ped-up! | [C,G,]2 [G,,G,]!ped-up!!ped! [G,,G,]2 C, | %90
!>(!!ped! [F,,C,]6!ped-up!!>)! | B,,3!ped! ([B,,F,]2 [B,,^F,]!ped-up! | %92
!ped! [B,,^F,]2 [B,,G,]!ped-up!!ped! [C,G,]2 [C,=A,]!ped-up! | %93
!ped! [=D,=A,]2 [D,A,]!ped-up!!ped! [E,G,]2 [=E,B,^C]-!ped-up! | %94
 [E,B,C][F,B,=D][G,B,^C]!ped! [_A,B,D]2) .[B,,,B,,]!ped-up! | %95
 .[B,,,B,,] z [B,,F,B,] [B,,F,B,]2!ped-up!!ped! [E,B,] | [E,B,]2 [E,B,] [E,B,]3- | %97
 [E,B,]2 E,!ped-up! [G,,G,]2 C,!ped! | F,,2!ped-up!!ped! B,,, [B,,F,]2 =D,- | %99
 D,/E,/ =D,2- D,/E,/ D,2 |!ped! (=A,,C) z z2 z!ped-up! |!ped! =D,,=D,=A, C^F z!ped-up! | %102
!ped! (G,,=D,=D/^F/ G/) .^F,/(F,/=F,/)(F,/=E,/-)!ped-up! | E,/F,/ =E,2- E,/F,/ E,2 | %104
!ped! (=B,,=D) z!ped-up! z2 z |!ped! =E,,=E,=B, =D^G z!ped-up! | %106
!ped! =A,,, (=A,,/=E,/=A,/=E/ =A)E_E!ped-up! |!ped! =D2 (^F,!ped-up!!ped! G,!ped-up!=A,B,/=D,/ | %108
!ped! .=D,,)=D[C^F] G,D_D!ped-up! |!ped! C2 (=E,!ped-up!!ped! F,G,A,/C,/ | %110
!ped! .C,,)(C[B,=E]!ped-up!!ped! F,C[A,F]!ped-up! | %111
"^leggiero"!ped! .A,,) (TA,C,!ped-up!!ped! .D,) (TA,{=G,A,}D)!ped-up! | %112
!ped! .E,,E,[G,E]!ped-up!!ped! .A,,E,[A,E]/ z/!ped-up! | %113
!ped! .A,,[K:treble] (TAC!ped-up!!ped! .D) (TA{GA}d)!ped-up! | %114
[K:bass]!ped! E,[K:treble]E[Ge]!ped-up!!ped! A,E[Ae]!ped-up! | %115
[K:bass]!ped! .E,[K:treble]E[Ge]!ped-up!!ped! .A,E[Ae]/ z/!ped-up! | %116
[K:bass]!ped! .E,,(.E,.[G,DE][K:treble] .[B,DG].[EGd].[Gde]!ped-up! | .[deg]) z z z2 z | %118
[K:bass] z!>(! (!>!D2- D2!>)! E,- |!ped! E,=E,F,!ped-up!!ped! ^F,G,_E,!ped-up! | %120
!ped! A,)(E,_G,!ped-up!!ped! _F,C,D,!ped-up! | %121
!ped! _G,,A,,__B,,!ped-up!!ped! _B,,)(=D,,/E,,/D,,/E,,/!ped-up! | %122
!ped! .[A,,,A,,]) ([E,,E,][_G,,_G,]!ped-up!!ped! [_F,,_F,][C,,C,][D,,D,]!ped-up! | %123
!ped! [_G,,,_G,,][A,,,A,,][__B,,,__B,,]!ped-up!!ped! [_B,,,_B,,][E,,,E,,][E,,E,])!ped-up! | %124
!ped! [A,,,A,,][E,,E,]"_ten."!ped-up!!ped! x z B,!>!B,-!ped-up! | B,(=A,/B,/A,/B,/ E3) | %126
!ped! [A,,,A,,][E,,E,][A,,A,]-!ped-up!!ped! A,A,!>!A,-!ped-up! | %127
!ped! ^G,"_ritardando"!<(!(^^F,/G,/F,/G,/!<)! ^G3)!ped-up! | %128
!ped! (=A,,,/=E,/=A,/=B,/^C)!ped-up!!ped! (=D,,/A,/^F,/A,/!ped-up!!ped!=B,,/A,/)!ped-up! | %129
!ped! (=E,,/=E,/[=D,^G,]/E,/^C,/E,/!ped-up!!ped! =A,,/E,/=A,/^F,/!ped-up!E,)!ped!!ped-up! | %130
 (=A,,,/=A,,/=E,/=B,/^C)!ped-up!!ped! (=D,,/=A,/^F,/A,/!ped-up!!ped!^F,,/^C,/) | %131
!ped! (^E,,/^C,/^G,/C,/^F,,/C,/!ped!!ped-up! ^C,,/^G,,/G,/C,/^C) | %132
!ped! (=E,,/=E,/[=D,^G,]/E,/^C,/E,/!ped-up!!ped! =A,,/E,/=A,/^F,/!ped-up!E,/A,,/ | %133
 =A,/^F,/=E,/=A,,/A,/F,/"^dolciss."!ped! !fermata![A,,E,-]3) (E,A,^C[I:staff -1]=E=A^c=e=ae=fecA=dcAE!ped-up!=F!ped!E^C=A,!ped-up!=D!ped!C"^rallent."[I:staff +1]E,A,,!ped-up!=D!ped!C=E,A,,=D)!ped-up! !fermata!C3 z2 z | %134
"^legato"!ped! z2 z (=A,B,=D!ped-up! |!ped! ^CG,B, =A,B,=D!ped-up! | %136
!ped! _DCB,-) B,!ped-up!!ped!=A,=D, | x2!ped-up! (C,-!ped! C,_D,F, | %138
 =E,B,,D,!ped-up!!ped! C,) z z | (CDF!ped-up!!ped! _F_ED-) | DC!ped-up!!ped!F, B,B,,!ped-up!(E,- | %141
!ped! E,_F,A, G,D,F,!ped-up! | E,) z[K:treble] (=D E_FA |!ped! __A_G_F _E__ED!ped-up! | %144
!ped! [=C_E]=F,!ped-up!=F[K:bass]!ped! .B,,)[F,D]._A,,!ped-up! | %145
!ped! ._G,,[D,_G,B,][G,B,D]!ped-up!!ped! .D,,[F,A,D][A,DF]!ped-up! | %146
!ped! .E,,[E,B,C][B,C_G]!ped-up!!ped! .F,,[K:treble][CF=A][=A,CF]!ped-up! | %147
[K:bass]!ped! .F,[K:treble][D=EG][B,DE]!ped-up![K:bass]!ped! .F,,[K:treble][CF=A][=A,CF]!ped-up! | %148
[K:bass]!ped! .F,[K:treble][D=EG][B,DE]!ped-up![K:bass]!ped! .F,,[K:treble][C_E_G][_G,CE]!ped-up! | %149
[K:bass]!ped! .F,[K:treble][E_GB][CEG]!ped-up![K:bass]!ped! .F,,[K:treble][E=A][=A,EF]!ped-up! | %150
[K:bass]!ped! .B,,[B,DF][F,B,D]!ped-up!!ped! .C,[B,C=E][G,B,C]!ped-up! | %151
!ped! (F,,/C,/A,/F,/C/A/)!ped-up!!mf!!ped! (F,,/D,/G,/=E,/B,/G/)!ped-up! | %152
!ped! (F,,/C,/A,/F,/C/A/)!ped-up!!ped! (F,,/D,/G,/=E,/B,/G/)!ped-up! | %153
!ped! (F,,/C,/A,/)!ped-up!!ped!(_F,,/C,/A,/)!ped-up!!ped! (E,,/C,/A,/E,/C/A/)!ped-up! | %154
!ped! (_E,,/D,/G,/E,/D/B/)!ped-up!!ped! (A,,/E,/C/E,/C/A/)!ped-up! | %155
!ped! (A,,/_F,/C/F,/C/A/)!ped-up!!ped! (A,,,/E,/C/E,/C/A/)!ped-up! | %156
!ped! (A,,/_F,/D/[K:treble]B,/G/_d/)!ped-up![K:bass]!ped! (A,,/E,/C/[K:treble]A,/E/c/)!ped-up! | %157
[K:bass]!ped! (A,,/_F,/D/[K:treble]B,/G/_d/)!ped-up![K:bass]!ped! (A,,/E,/C/[K:treble]A,/E/c/)!ped-up! | %158
[K:bass]!ped! (E,,/B,,/_G,/E,/B,/_G/)!ped-up!!ped! (F,,/C,/=A,/F,/E/=A/)!ped-up! | %159
!ped! (B,,,/F,,/D,/B,,/F,/D/)!ped-up!!ped! (_G,,/D,/B,/_G,/D/B/)!ped-up! | %160
!ped! (D,,/A,,/F,/D,/A,/F/)!ped-up!!ped! (E,,/_C,/_G,/)!ped-up!!ped!(=E,,/D,/=G,/)!ped-up! | %161
!ped! (F,,/C,/=A,/F,/C/=A/)!ped-up!!ped! (F,,/D,/B,/=E,/D/G/)!ped-up! | %162
!ped! (F,,/C,/=A,/F,/C/=A/)!ped-up![K:treble]!ped! (F,/D/B/=E/d/g/)!ped-up! | %163
!ped! [Fc] z2 z!ped-up![K:bass] (3C/D/=D/ (3E/=E/_D/ | %164
!ped! [CF][F,_E] z z!ped-up! (3C,/D,/=D,/ (3E,/=E,/_D,/ | %165
 [F,,C,F,][D,=E,][C,F,] [D,E,][C,F,][D,E,] | [F,,_E,] z z z2 z | z6 | %168
!p!!ped! (3D,,/"_leggiero"(A,,/B,,/ (3C,/!ped-up!D,/E,/!ped! (3F,/_G,/A,/ (3B,/A,/B,/ (3C/D/E/F)!ped-up! | %169
!ped! (3(D,,/A,,/B,,/ (3C,/!ped-up!D,/E,/!ped! (3F,/_G,/A,/ (3B,/A,/C/ (3D/E/F/_G)!ped-up! | %170
!ped! (3(D,,/A,,/B,,/ (3C,/!ped-up!D,/E,/!ped! (3F,/_G,/A,/ (3B,/A,/B,/ (3_C/D/E/!ped-up!!ped!F) | %171
 (3D,,/A,,/D,/ (3F,/A,/D/ (3A,/!ped-up!F/D/!ped! (3A,/A/F/ (3D/A,/F,/ (3D,/A,,/!ped!!ped-up!A,/ | %172
"^dolce" (3D,,/A,,/D,/ (3A,/D,/A,,/ (3D,/A,/D/ (3A,/D,/A,/ (3D/A/D/ (3A,/D,/A,/ | %173
 (3D/A,/D,/ (3A,,/D,/A,/ (3D,/A,,/D,,/!ped-up!!ped! ._G,,,/D,/ (3D/_G,/D,/ (3B,/G,/D,/ | %174
!ped! E,,/B,,/E,/_G,/E,/B,,/!ped-up!!ped! E,,/B,,/E,/B,/!ped-up!E,/B,,/ | %175
!ped! A,,/E,/_G,/D/G,/E,/!ped-up!!ped! A,,/E,/G,/C/G,/A,,/!ped-up! | %176
!ped! (3D,,/!<(!(A,,/B,,/ (3C,/D,/E,/!ped-up!!ped! (3F,/_G,/A,/ (3B,/A,/B,/ (3C/D/E/F)!ped-up!!<)! | %177
!ped!!<(! (3(D,,/A,,/B,,/ (3C,/D,/E,/!ped-up!!ped! (3F,/_G,/A,/ (3B,/A,/C/ (3D/E/F/_G)!ped-up!!<)! | %178
!ped!!<(! (3(D,,/A,,/B,,/ (3C,/D,/E,/!ped-up!!ped! (3F,/_G,/A,/!ped-up!!ped! (3B,/A,/B,/ (3C/D/E/_F)!ped-up!!<)! | %179
!ped! (3(C,,/C,/E,/ (3A,/E,/A,/[K:treble]!ped-up!!ped! (3C/E/A/ (3E/e/A/ (3E/C/A,/[K:bass] (3E,/C,/A,,/)!ped-up! | %180
!ped! ._C,, (3(_C,/D,/F,/ (3D/F,/D,/)!ped-up!!ped! (3(B,,/D,/_G,/ (3E/G,/D,/ (3D/G,/D,/)!ped-up! | %181
!ped! (3(A,,/D,/F,/ (3=C/F,/D,/ (3D/!ped-up!F,/D,/)!ped! (3(_G,,/D,/_G,/ (3E/G,/D,/!ped-up! (3_F/G,/D,/) | %182
!ped! (3(=G,,/D,/E,/ (3=A,/E,/D,/ (3B,/E,/!ped-up!D,/)!ped! (3(_A,,/E,/_A,/ (3F/A,/E,/!ped-up! (3E/A,/E,/) | %183
!ped! (3(B,,/E,/G,/ (3=D/G,/E,/ (3E/G,/!ped-up!E,/)!ped! (3(A,,/E,/A,/ (3E/A,/E,/!ped-up! (3A/E/A,/) | %184
!ped! (3(B,,/D,/_G,/(3B,/G,/D,/(3D/G,/D,/)!ped-up!!ped! (!>!B,,,/_G,,/(3D,/G,,/D,/(3G,,/!ped-up!D,/G,,/) | %185
!ped! (!>!B,,,/_G,,/(3D,/G,,/D,/(3G,,/D,/G,,/)!ped-up!!ped! (!>!B,,,/G,,/(3D,/G,,/D,/(3G,,/D,/G,,/)!ped-up! | %186
!ped! (!>!B,,,/F,,/(3D,/F,,/D,/(3F,,/D,/F,,/)!ped-up!!ped! (C,,!<(! (3C,/D,/=D,/ (3E,/=E,/F,/)!ped-up!!<)! | %187
!ped! (D,,!<(! (3C,/D,/!ped-up!=D,/ (3E,/=E,/F,/)!<)!!ped! (=E,,!<(! (3=D,/!ped-up!_E,/=E,/ (3F,/^F,/G,/)!<)! | %188
!ped! (F,,!<(! (3E,/=E,/!ped-up!F,/ (3^F,/G,/A,/)!<)!!ped! (G,,!<(! (3=F,/!ped-up!^F,/G,/ (3A,/=A,/B,/)!<)! | %189
!ped! (3(A,,/F,/_A,/ (3D/A,/F/ (3D/A,/F,/)!ped-up!!ped! (3(A,,,/A,,/E,/ (3C/!ped-up!A,/_G/ (3C/A,/E,/) | %190
!ped! (!>!D,,/>A,,/ (3D,/D,/A,/[K:treble] (3D/D/A/ (3!>!d/A/D/[K:bass] (3D/A,/D,/ (3D,/A,,/D,,/)!ped-up! | %191
!ped! (!>!D,,/>=A,,/ (3D,/D,/=A,/[K:treble] (3D/D/=A/ (3!>!d/A/D/[K:bass] (3D/A,/D,/ (3D,/A,,/D,,/)!ped-up! | %192
!ped! (!>!D,,/>B,,/ (3D,/D,/B,/[K:treble] (3D/D/B/ (3!>!d/B/D/[K:bass] (3D/B,/D,/ (3D,/B,,/D,,/)!ped-up! | %193
!ped! (!>!D,,/>G,,/ (3D,/D,/G,/[K:treble] (3D/D/G/ (3!>!d/G/D/[K:bass] (3D/G,/D,/ (3D,/G,,/D,,/!ped-up! | %194
!ped! [C,,C,])!<(! (!>!C,,/>F,,/ (3A,,/=B,,/C,/ (3F,/A,/=B,/[I:staff -1] (3C/F/A/ (3=B/c/f/!ped-up!!<)! | %195
 .a)[I:staff +1] .[D,A,D] .[_C,F,A,_C] .[B,,D,_G,B,] .[=C,=G,=C] .[B,,=E,G,B,] | %196
!ped! .[A,,F,A,]!ped-up!!<(! (!>!C,,/>F,,/ (3A,,/=B,,/C,/ (3F,/A,/=B,/[I:staff -1] (3C/F/A/ (3=B/c/f/!<)! | %197
 .a)[I:staff +1] .[D,D] .[_C,,_C,] .[B,,,B,,] .[=C,,=C,] .[B,,,B,,] | %198
 .[A,,,A,,] .[G,,,G,,] .[^F,,,^F,,] .[=E,,,=E,,] .[^D,,,^D,,] .[=D,,=D,] | %199
 .[^C,,^C,] .[=B,,,=B,,] .[^A,,,^A,,] .[=A,,,=A,,] .[_A,,,_A,,] .[_B,,,_B,,] | %200
 [C,,C,] z z (C,D,F,) | .[C,,C,].[G,,,G,,].[C,,,C,,] z2 !fermata!z |!ped! [C,G,=E]6!ped-up! | %203
!ped! [C,G,=D]6!ped-up! |!ped! [C,G,C]6!ped-up! |!ped! [C,G,_B,]6!ped-up! | %206
!ped! [C,,C,]6-!ped-up! | [C,,C,]6- | [C,,C,]6- | [C,,C,]2 z z2 z | %210
!ped! .F,,, (3D,/D,,/G,,/!ped-up!!ped! (3C,,/=E,/C,/!ped-up!!ped! (3A,/C,/F,,/ D,/!ped-up!D,,/!ped-up!!ped! (3C,,/E,/C,/ | %211
!ped! (3F,,/F,/A,,/!ped-up!!ped! (3E,,/_G,/A,,/!ped-up!!ped! (3D,,/F,/A,,/!<(!!ped-up!!ped! (3(=G,,/A,,/=A,,/ (3B,,/=B,,/C,/ (3D,/C,/)!<)! z/!ped-up! | %212
!ped! .F,, (3D/D,/G,/!ped-up!!ped! (3C,/=E/C/!ped-up!!ped! (3A/C/F,/ D/!ped-up!D,/!ped! (3C,/E/C/!ped-up! | %213
!ped! (3F,/F/A,/!ped-up!!ped! (3E,/_G/A,/!ped-up!!ped! (3D,/F/A,/!<(!!ped-up!!ped! (3(G,/A,/=A,/ (3B,/=B,/C/ (3D/C/)!<)! z/!ped-up! | %214
!ped! (3F,/A/=D/ (3=B,/A/D/!ped-up!!ped! (3=E,/G/_D/!ped-up!!ped! (3_E,/_G/C/ (3=A,/G/C/!ped-up!!ped! (3=D,/F/_C/!ped-up! | %215
!ped! (3_D,/=E/B,/ (3G,/E/B,/!ped-up!!ped! (3=C,/E/B,/!ped-up!!ped! (3=B,,/=E/=B,/ (3G,/E/B,/!ped-up!!ped! (3_B,,/E/C/!ped-up! | %216
!ped! (3A,,/F/C/ (3A,/F/C/!ped-up!!ped! (3B,,/F/D/!ped-up!!ped! (3C,/F/C/ (3A,/F/C/!ped-up!!ped! (3C,/=E/C/!ped-up! | %217
!ped! (3D,/D/A,/ (3F,/D/A,/!ped-up!!ped! (3B,,/D/G,/!ped-up!!ped! (3C,/(C/D/"_marcato" (3C/=B,/C/ (3G,/C/=A,/)!ped-up! | %218
 (3!>!B,/F,/G,/ (3!>!_A,/E,/F,/ (3!>!G,/=D,/=E,/ (3!>!F,/C,/_D,/ (3!>!B,,/=A,,/B,,/ (3!>!C,/=B,,/C,/ | %219
 (3=A,,/^G,,/A,,/ (3B,,/C,/_A,,/ (3=G,,/A,,/F,,/ (3=E,,/F,,/G,,/ (3F,,/G,,/_E,,/ (3D,,/E,,/C,,/ | %220
 (3B,,,/C,,/D,,/(3C,,/F,,/E,,/(3D,,/E,,/F,,/ (3=E,,/F,,/G,,/(3F,,/B,,/A,,/(3G,,/A,,/B,,/ | %221
 (3A,,/B,,/C,/(3=A,,/^G,,/A,,/(3B,,/C,/D,/ (3C,/_A,,/F,,/(3D,,/C,,/D,,/(3C,,/A,,/=G,,/ | %222
!ped! [F,,C,]/>_E,/ _G,/>=A,/[K:treble] C/>E/ _G/>=A/!ped-up! c/>e/ _g/>=a/ | %223
 .c'[K:bass] (3[_G,,_G,]/[F,,F,]/[E,,E,]/ (3[D,,D,]/[C,,C,]/[B,,,B,,]/!>(! (3([A,,,A,,]/[=G,,,=G,,]/)[G,,,G,,]/ (3([G,,,G,,]/[C,,,C,,]/)[C,,,C,,]/ (3([D,,,D,,]/[C,,,C,,]/)!>)![C,,,C,,]/ | %224
!ped! (3[F,,,F,,]/ z/ _E,/!ped-up! _G,/>=A,/[K:treble] C/>E/ _G/>=A/ c/>e/ _g/>=a/ | %225
 .c'[K:bass] (3[_G,_G]/[F,F]/[E,E]/ (3[D,D]/[C,C]/[B,,B,]/ (3([A,,A,]/[G,,=G,]/)[G,,G,]/ (3([G,,G,]/[C,,C,]/)[C,,C,]/ (3([D,,D,]/[C,,C,]/)[C,,C,]/ | %226
!ped! (3(F,,,/C,,/A,,/)!ped-up! z!ped-up! z!ped! (C,,/B,,/=E,/=E,,/C,/B,/) | %227
!ped! (F,,/C,/A,/A,,/F,/C/)!ped-up!!ped! (C,/B,/=E/=E,/C/B/)!ped-up! | %228
!ped! (F,,/C,/A,/A,,/F,/C/)!ped-up!!ped! (C,/B,/=E/=E,/C/B/)!ped-up! | %229
[K:treble]!ped! (F,/C/A/A,/F/c/)!ped-up!!ped! (C/B/=e/=E/c/b/)!ped-up! | %230
 .[FAcf]!ped! !>![FAdf]2 .[FAcf]!ped-up!!ped! !>![FAdf]2!ped-up! | %231
[K:bass] .[F,A,CF]!ped-up!!ped! !>![F,A,DF]2 .[F,A,CF] !>![F,A,DF] z | %232
!ped! .[F,,C,A,] z z[K:treble] (3(d'/c'/a/!ped-up! (3f/b/a/ (3f/c/g/ | %233
 (3f/c/A/ (3d/c/A/ (3F/B/A/ (3F/C/G/ (3F/C/A,/ (3D/C/A,/ | %234
[K:bass] (3F,/B,/A,/ (3F,/C,/G,/ (3F,/C,/A,,/ (3D,/C,/A,,/ (3F,,/B,,/A,,/ (3F,,/C,,/G,,/ | %235
 (3F,,/C,,/A,,,/ (3D,,/C,,/A,,,/ (3F,,,/D,,/C,,/ (3A,,,/F,,,/D,,/ (3C,,/A,,,/F,,,/ (3D,,/C,,/A,,,/ | %236
 F,,,) z z!ped! .[D,,D,] z z!ped-up! |!ped! .[B,,,B,,] z z!ped-up!!ped! .[C,,C,] z z!ped-up! | %238
!ped! !fermata![F,,,F,,]6!ped-up! |] %239
V:4
 x6 | x6 | x6 | !arpeggio!x/ x/ x2 x2 x | x6 | x6 | x6 | x6 | x6 | x6 | x6 | x6 | x6 | x6 | x6 | %15
 x6 | x6 | x6 | x6 | x6 | x6 | x6 | x6 | x6 | x6 | x6 | x6 | x6 | x6 | x6 | x6 | x6 | x6 | x6 | %34
 x6 | x6 | x6 | x6 | x6 | x6 | x6 | x6 | x6 | x6 | x6 | x6 | x6 | x6 | x6 | %49
 x3 (3x/x/x/(5:4:5x/4x/4x/4x/4x/4(3!trill)!x/x/x/ | x6 | x6 | x6 | x6 | x6 | x6 | x6 | x6 | x6 | %59
 x6 | x6 | x6 | x6 | x6 | x2 x3/4 x/8x/8 x3 | x6 | x6 | x3 x x3/4 x/8x/8 x | x3 x x3/4 x/8x/8 x | %69
 x6 | x[K:bass] x5 |[K:treble] x6 | x6 | x4!8va(! x2 | x6 | x6 | x3!8va)! x3 | x6 | x6 | x6 | x6 | %81
 x6 | x6 | x6 | x6 | x6 | x6 | x6 | x6 | x6 | x6 | x6 | x6 | x6 | x6 | x6 | x6 | x6 | x6 | x6 | %100
 x6 | x6 | x6 | x6 | x6 | x6 | x6 | x6 | x6 | x6 | x6 | x6 | x6 | x6 | x6 | x6 |!8va(! x6 | %117
 x3!8va)! x3 | x6 | (3x/x/x/ !///-!x !trill)!x x2 x | x6 | x6 | x6 | x6 | x6 | x3 e__ed | x6 | %127
 x/ x3/8 x/16-x/16- x/ x3/8 x/16-x/16- x x2 =B- | x/ x/ x2 x3 | x3 x2 x3/4 x/4- | x6 | %131
 x2 x3/4 x/4- x3 | x6 | x42 | x6 | x6 | x6 | x6 | x6 | x6 | x6 | x6 | x6 | x6 | x6 | x6 | x6 | x6 | %148
 x6 | x6 | x6 | x6 | x241/40 | x6 | x6 | x6 | x6 | x6 | x6 | x6 | x6 | x6 | %162
 x7/3!8va(! x8/3!8va)! x | x6 | x6 | x6 | x6 | x6 | x6 | x6 | x x3/4 x/8-x/8- x4 | x6 | x6 | x6 | %174
 x6 | x6 | x6 | x6 | x6 | x6 | x6 | x6 | x6 | x6 | x6 | x6 | x6 | x6 | x6 | (3c/_e/_d/ x2 x3 | x6 | %191
 x6 | x6 | x6 | x6 | x6 | x6 | x6 | x6 | x6 | x6 | x6 | x6 | x6 | x6 | x6 | x6 | x6 | x6 | x6 | %210
 x6 | x6 | x6 | x6 | x6 | x6 | x6 | x6 | x6 |[K:bass] x6 | x6 | x6 |[K:treble] x4!8va(! x2 | %223
 x!8va)! x5 | x4!8va(! x2 | x!8va)! x5 | x[K:bass] x4[K:treble] x | x6 | x6 | x6 | %230
 x/3!8va(! x17/3!8va)! | x6 | x2!8va(! x4!8va)! | x6 | x6 | x6 | x3[K:treble] x3 | x6 | x6 |] %239
V:5
 x6 | x6 | x6 | x6 | x6 | x6 | x3/2 x3/2- C,2 z | x4[K:treble] x2 | %8
[K:bass] x[K:treble] x2[K:bass] x[K:treble] x2 |[K:bass] x[K:treble] x2[K:bass] x[K:treble] x2 | %10
[K:bass] x6 | x6 | x[K:treble] x2[K:bass] x[K:treble] x2 | %13
[K:bass] x[K:treble] x2[K:bass] x[K:treble] x2 |[K:bass] x[K:treble] x2[K:bass] x[K:treble] x2 | %15
[K:bass] x[K:treble] x2[K:bass] x3 | x6 | x4[K:treble] x2 | %18
[K:bass] x[K:treble] x2[K:bass] x[K:treble] x2 |[K:bass] x[K:treble] x2[K:bass] x[K:treble] x2 | %20
[K:bass] x[K:treble] x2[K:bass] x[K:treble] x2 |[K:bass] x6 | x6 | x6 | x6 | x6 | x4[K:treble] x2 | %27
[K:bass] x[K:treble] x2[K:bass] x[K:treble] x2 |[K:bass] x[K:treble] x2[K:bass] x[K:treble] x2 | %29
[K:bass] x[K:treble] x2[K:bass] x[K:treble] x2 |[K:bass] x6 | x6 | %32
 x[K:treble] x2[K:bass] x[K:treble] x2 |[K:bass] x[K:treble] x2[K:bass] x[K:treble] x2 | %34
[K:bass] x[K:treble] x2[K:bass] x[K:treble] x2 |[K:bass] x[K:treble] x2[K:bass] x3 | x6 | x6 | x6 | %39
 x6 | x6 | x6 | x6 | x6 | x6 | x6 | x6 | x6 | x6 | x6 | x6 | x6 | x6 | x6 | x6 | x4[K:treble] x2 | %56
[K:bass] x6 | x6 | x6 | x6 | x6 | x6 | x6 | x6 | x6 | x6 | x6 | x6 | x6 | x6 | x6 | x6 | x6 | %73
 x3/2[K:treble] x9/2 | x6 | x6 | x6 |[K:bass] x6 | x6 | x6 | x6 | x6 | x6 | x6 | x6 | x6 | x6 | %87
 x6 | x6 | x6 | x6 | x6 | x6 | x6 | x6 | x6 | x6 | x6 | x6 | x6 | x6 | x6 | x6 | x6 | x6 | x6 | %106
 x6 | x6 | x6 | x6 | x6 | x6 | x6 | x[K:treble] x5 |[K:bass] x[K:treble] x5 | %115
[K:bass] x[K:treble] x5 |[K:bass] x3[K:treble] x3 | x6 |[K:bass] x6 | x6 | x6 | x6 | x6 | x6 | x6 | %125
 x6 | x6 | x6 | x6 | x6 | x6 | x6 | x6 | x42 | x6 | x6 | x6 | x6 | x6 | x6 | x6 | x6 | %142
 x2[K:treble] x4 | x6 | x3[K:bass] x3 | x6 | x4[K:treble] x2 | %147
[K:bass] x[K:treble] x2[K:bass] x[K:treble] x2 |[K:bass] x[K:treble] x2[K:bass] x[K:treble] x2 | %149
[K:bass] x[K:treble] x2[K:bass] x[K:treble] x2 |[K:bass] x6 | x6 | x241/40 | x6 | x6 | x6 | %156
 x3/2[K:treble] x3/2[K:bass] x3/2[K:treble] x3/2 | %157
[K:bass] x3/2[K:treble] x3/2[K:bass] x3/2[K:treble] x3/2 |[K:bass] x6 | x6 | x6 | x6 | %162
 x3[K:treble] x3 | x4[K:bass] x2 | x6 | x6 | x6 | x6 | x6 | x6 | x6 | x6 | x6 | x6 | x6 | x6 | x6 | %177
 x6 | x6 | x2[K:treble] x3[K:bass] x | x6 | x6 | x6 | x6 | x6 | x6 | x6 | x6 | x6 | x6 | %190
 x2[K:treble] x2[K:bass] x2 | x2[K:treble] x2[K:bass] x2 | x2[K:treble] x2[K:bass] x2 | %193
 x2[K:treble] x2[K:bass] x2 | x6 | x6 | x6 | x6 | x6 | x6 | x6 | x6 | x6 | x6 | x6 | x6 | x6 | x6 | %208
 x6 | x6 | x6 | x6 | x6 | x6 | x6 | x6 | x6 | x6 | x6 | x6 | x6 | x6 | x2[K:treble] x4 | %223
 x[K:bass] x5 | x2[K:treble] x4 | x[K:bass] x5 | x6 | x6 | x6 |[K:treble] x6 | x6 |[K:bass] x6 | %232
 x3[K:treble] x3 | x6 |[K:bass] x6 | x6 | x6 | x6 | x6 |] %239
V:6
 x6 | x6 | x6 | x6 | x6 | x6 | x6 | x4[K:treble] x2 | %8
[K:bass] x[K:treble] x2[K:bass] x[K:treble] x2 |[K:bass] x[K:treble] x2[K:bass] x[K:treble] x2 | %10
[K:bass] x6 | x6 | x[K:treble] x2[K:bass] x[K:treble] x2 | %13
[K:bass] x[K:treble] x2[K:bass] x[K:treble] x2 |[K:bass] x[K:treble] x2[K:bass] x[K:treble] x2 | %15
[K:bass] x[K:treble] x2[K:bass] x3 | x6 | x4[K:treble] x2 | %18
[K:bass] x[K:treble] x2[K:bass] x[K:treble] x2 |[K:bass] x[K:treble] x2[K:bass] x[K:treble] x2 | %20
[K:bass] x[K:treble] x2[K:bass] x[K:treble] x2 |[K:bass] x6 | x6 | x6 | x6 | x6 | x4[K:treble] x2 | %27
[K:bass] x[K:treble] x2[K:bass] x[K:treble] x2 |[K:bass] x[K:treble] x2[K:bass] x[K:treble] x2 | %29
[K:bass] x[K:treble] x2[K:bass] x[K:treble] x2 |[K:bass] x6 | x6 | %32
 x[K:treble] x2[K:bass] x[K:treble] x2 |[K:bass] x[K:treble] x2[K:bass] x[K:treble] x2 | %34
[K:bass] x[K:treble] x2[K:bass] x[K:treble] x2 |[K:bass] x[K:treble] x2[K:bass] x3 | x6 | x6 | x6 | %39
 x6 | x6 | x6 | x6 | x6 | x6 | x6 | x6 | x6 | x6 | x6 | x6 | x6 | x6 | x6 | x6 | x4[K:treble] x2 | %56
[K:bass] x6 | x2 x3/4 x/8x/8 x3 | x2 x3/4 x/8x/8 x3 | x3 x E,E, | E,,/E,/B,/E/D/E/ A,>F,(F,/_F,/) | %61
 (_F,/E,/)[E,,E,]/[D,,D,]/[C,,C,]/[B,,,B,,]/ x2 x3/4 x/8x/8 | x3 x2 x3/4 x/8x/8 | %63
 x3 x2 x3/4 x/8x/8 | x3 F,,/x/C/E/_G/F/ | x3 x2 x3/4 x/8x/8 | x6 | x6 | x6 | x6 | x6 | x6 | x6 | %73
 x3/2[K:treble] x9/2 | x6 | x6 | x6 |[K:bass] x6 | x6 | x6 | x6 | x6 | x6 | x6 | x6 | x6 | x6 | %87
 x6 | x6 | x6 | x6 | x6 | x6 | x6 | x6 | x6 | x6 | x3 x2 x/ x/8 x/8x/8x/8 | x6 | ^F,,3 G,,3 | x6 | %101
 x6 | x6 | ^G,,3 =A,,3 | x6 | x6 | x6 | =D6 | x x3 x2 | C6 | x x3 x2 | %111
 x3 x (5:4:5x/4x/4x/4x/4x/4 x | x6 | x3[K:treble] x (5:4:5x/4x/4x/4x/4x/4 x | %114
[K:bass] x[K:treble] x5 |[K:bass] x3[K:treble] x2 !>!x/ x/ |[K:bass] x3[K:treble] x3 | x6 | %118
[K:bass] x6 | A,,6- | A,,3 x2 x | x6 | x6 | x6 | x2 [A,,E,]- [A,,E,]3- | [A,,E,]3 x3 | x3 A,,3- | %127
 ^G,,3 x3 | x6 | x6 | x6 | x6 | x6 | x42 | x6 | x6 | x6 | G,G,,C, F,, z z | x6 | x6 | x6 | %141
 A,, z z x2 x | x2[K:treble] x4 | x6 | x3[K:bass] x3 | x6 | x4[K:treble] x2 | %147
[K:bass] x[K:treble] x2[K:bass] x[K:treble] x2 |[K:bass] x[K:treble] x2[K:bass] x[K:treble] x2 | %149
[K:bass] x[K:treble] x2[K:bass] x[K:treble] x2 |[K:bass] x6 | x6 | x241/40 | x6 | x6 | x6 | %156
 x3/2[K:treble] x3/2[K:bass] x3/2[K:treble] x3/2 | %157
[K:bass] x3/2[K:treble] x3/2[K:bass] x3/2[K:treble] x3/2 |[K:bass] x6 | x6 | x6 | x6 | %162
 x3[K:treble] x3 | x4[K:bass] x2 | x6 | x6 | x6 | x6 | x6 | x6 | x6 | x6 | x6 | x6 | x6 | x6 | x6 | %177
 x6 | x6 | x2[K:treble] x3[K:bass] x | x6 | x6 | x6 | x6 | x6 | x6 | x3 C,,/F,,/ x2 | %187
 D,,/B,,/ x2 =E,,/C,/ x2 | F,,/D,/ x2 G,,/=E,/ x2 | _A,, x2 x3 | x2[K:treble] x2[K:bass] x2 | %191
 x2[K:treble] x2[K:bass] x2 | x2[K:treble] x2[K:bass] x2 | x2[K:treble] x2[K:bass] x2 | x6 | x6 | %196
 x6 | x6 | x6 | x6 | x6 | x6 | x6 | x6 | x6 | x6 | x6 | x6 | x6 | x6 | x6 | x6 | x6 | x6 | x6 | %215
 x6 | x6 | x6 | x6 | x6 | x6 | x6 | x2[K:treble] x4 | x[K:bass] x5 | x2[K:treble] x4 | %225
 x[K:bass] x5 | x6 | x6 | x6 |[K:treble] x6 | x6 |[K:bass] x6 | !arpeggio!x/ x/ x2[K:treble] x2 x | %233
 x6 |[K:bass] x6 | x6 | x6 | x6 | x6 |] %239

